!!!!SEGMENT: pl-wtm--r-459-m_moniuszko-stanislaw--jawnuta-bartosz.krn
!!!cenid: 18xx:3039
!!!COM: Moniuszko, Stanisław
!!!COM-rismid: pe30008351
!!!CDT: 1819/05/05-1872/06/04
!!!CNT: Polish
!!!GTL: Jawnuta
!!!OTL: Bartosz
!!!PDT:
!!!AGN: Secular
!!!SMS-siglum: PL-Wtm
!!!SMS-shelfmark: R 459/M
!!!SMS-shelfwork: G
!!!SMS-variant:
!!!SMS-altvar:
!!!NIFC-rismid: 1001088426
!!!URL-scan: http://repozytorium.nifc.pl/skany/pl-wtm-nut--r459m
!!!ONB-nifc:
**kern	**text	**text
*clefG2	*	*
*Iempty	*	*
*I"	*	*
*>[A,B,B,C]	*	*
*k[b-]	*	*
*F:	*	*
*M4/4	*	*
=1	=1	=1
*^	*	*
*>A	*	*	*
*all\right	*	*	*
!LO:TX:t=Aria:color=blue	!	!	!
4ryy	1r	.	.
8ryy	.	.	.
*cue	*	*	*
8cc/	.	.	.
8ff/L	.	.	.
8cc/	.	.	.
8ff/	.	.	.
8cc/J	.	.	.
*Xcue	*	*	*
*v	*v	*	*
=2	=2	=2
4ff\	O	.
8.cc\	też	.
16cc\	po-	.
4cc\	-cie-	.
8b-\	-chę	.
8a\	mam	.
=3	=3	=3
4cc\	z sy-	.
4b-\	-na	.
4r	.	.
8.dd\	ja-	.
16cc\	-ką	.
=4	=4	=4
4g/	mi	.
4b-/	na	.
(4c/	sta-	.
8d/)	.	.
8e/	-rość	.
=5	=5	=5
8f/L	nie-	.
8a/J	.	.
4cc\	-sie,	.
2r	.	.
!!LO:LB:g=original
=6	=6	=6
8.ff\	więc	[[o]]
16cc\	to	.
4cc\	ta	.
4a/	bę-	.
8a/	-dzie	.
8f/	przy-	.
=7	=7	=7
4dd\	-czy-	.
4b-\	-na	.
4r	.	.
8g/	cze-	.
8g/	-go	.
=8	=8	=8
4.cc\	błą-	.
8cc\	-ka	.
4.cc\	się	.
8b-\	po	.
=9	=9	=9
4a/	le-	.
4f/	-sie.	.
4r	.	.
4cc\	Oj	.
=10	=10	=10
4.cc\	pię-	.
8cc\	-knaż	.
(4ff\	bo	.
8ee\)	.	.
8dd\	ko-	.
!!LO:LB:g=original
=11	=11	=11
*2\right	*	*
!	!	!
(2.cc\	-kań-	.
(8b-/)	-ka	.
8a/)	.	[[ta
=12	=12	=12
*^	*	*
*cue	*	*	*
4g/	2g/	ja-	ma-
4g/	.	-kaś	.
*Xcue	*	*	*
4.cc\	2ryy	tam	-ła]]
8cc\	.	cy-	.
*v	*v	*	*
=13	=13	=13
4a/	-gan-	.
4f/	-ka.	.
4r	.	.
4cc\	oj	.
=14	=14	=14
4.cc\	pięk-	.
8cc\	-naś	.
(4ff\	mi	[[to]]
8ee\)	.	.
8dd\	ko-	.
=15	=15	=15
2.cc\	-chan-	.
8bn/L	-ka	.
8a/J	.	.
=16	=16	=16
2g/	ta	.
4.g/	ma-	.
16a/LL	-ła	.
16bn/JJ	cy-	.
!!LO:LB:g=original
=17	=17	=17
8dd\	-gan-	.
8cc\	-ka.	.
8r	.	.
8ee\	Hul-	.
8cc\	-ta-	.
8g/	-je,	.
8r	.	.
8ee\	nie-	.
=18	=18	=18
8cc\	-cno-	.
8g/	-ty,	.
8r	.	.
8ee\	włó-	.
4cc\	-cę-	.
8a/	-gi	.
8cc\	po	.
=19	=19	=19
8a/	świe-	.
8a/	-cie,	.
8r	.	.
16dd\LL	wio-	.
16ee\JJ	-dąc	.
(8ff\	go	.
8ee\)	.	.
8dd\	do	.
8cc\	sro-	.
=20	=20	=20
4bn\	-mo-	.
8b\	-ty	.
16dd\LL	prze-	.
16cc\JJ	.	.
!!LO:LB:g=original
8bn/L	-de	.
8a/J	.	.
8g/	mną	.
8f/	kry-	.
=21	=21	=21
8e/	-je-	.
8e/	-cie!	.
8r	.	.
8gg\	Zło-	.
8ee\	-dzie-	.
8cc\	-je,	.
8r	.	.
8cc\	nie-	.
=22	=22	=22
8g/	-cno-	.
8g/	-ty	.
8r	.	.
8cc\	wło-	.
4ee\	-cę-	.
8cc\	-gi	.
8cc\	po	.
=23	=23	=23
8dd\	świe-	.
8a/	-cie,	.
8a/	wio-	.
16dd\LL	-dąc	.
16ee\JJ	.	.
8ff\L	go	.
8ee\J	.	.
8dd\	do	.
8cc\	sro-	.
!!LO:LB:g=original
=24	=24	=24
8bn\	-mo-	.
16dd\LL	-ty	.
16cc\JJ	.	.
8b\	je-	.
8a/	-szcze	.
8g/	prze-	.
16b/LL	-de	.
16a/JJ	.	.
8g/	mną	.
8f/	kry-	.
=25	=25	=25
8e/	-je-	.
8cc\	-cie	.
4r	.	.
2r	.	.
=26	=26	=26
4r	.	.
8r	.	.
8cc\	oj	.
4ff\	pię-	.
8cc\	-knaś	.
8a/ 8cc	ko-	.
=27	=27	=27
2cc\	-chan-	.
4cc\	-ka	.
4r	.	.
=28	=28	=28
4r	.	.
8r	.	.
8ee\	ta	.
4dd\	ma-	.
8bn/	-ła	.
8g/	cy-	.
!!LO:LB:g=original
=29	=29	=29
8cc\	-gan-	.
8cc\	-ka.	.
4r	.	.
2r	.	.
=30	=30	=30
!LO:TX:a:t=2	!	!
1r	.	.
=31	=31	=31
1r	.	.
=32	=32	=32
4r	.	.
8r	.	.
8ee\	hul-	.
8ee\	-ta-	.
8a/	-je	.
8r	.	.
8ee\	nie-	.
=33	=33	=33
8ee\	-cno-	.
8a/	-ty,	.
8r	.	.
8ee\	włó-	.
4ee\	-cę-	.
8cc\	-gi	.
8a/	po	.
=34	=34	=34
8cc\	świe-	.
8cc\	-cie,	.
8bn\	wio-	.
16dd\LL	-dąc	.
16ee\JJ	.	.
4ff\	go	.
8dd\	do	.
8b\	sro-	.
!!LO:LB:g=original
=35	=35	=35
4g#X/	-mo-	.
8bn/	-ty	.
16r	.	.
16b/	prze-	.
4ee\	-de	.
8.b\	mną	.
16b\	kry-	.
=36	=36	=36
8dd\	-je-	.
8cc\	-cie,	.
8r	.	.
8ee^\	zło-	.
8cc^\	-dzie-	.
8a^/	-je,	.
8r	.	.
8e/	nie-	.
=37	=37	=37
8a/	-cno-	.
8e/	-ty	.
8r	.	.
8ee\	wło-	.
4cc\ 4ee	-cę-	.
8cc\	-gi	.
8a/	po	.
=38	=38	=38
8cc\	świe-	.
8cc\	-cie,	.
8bn\	wio-	.
16dd\LL	-dąc	.
16ee\JJ	.	.
4ff\	go	.
8dd\	do	.
8b\	sro-	.
!!LO:LB:g=original
=39	=39	=39
4g#X/	-mo-	.
8bn\	-ty	.
16r	.	.
16b\	prze-	.
4ee\	-de	.
8.b\	mną	.
16b\	kry-	.
=40	=40	=40
8cc#X\	-je-	.
8cc#\	-cie,	.
8r	.	.
8a/	hul-	.
2dd\ 2ff	-ta-	.
=41	=41	=41
4a\ 4ee	-je!	.
8r	.	.
8a/	cy-	.
2ff\	-ga-	.
=42	=42	=42
4a/	-ny!	.
4r	.	.
2r	.	.
=43	=43	=43
!LO:TX:a:t=I	!	!
1r	.	.
!!LO:LB:g=original
=44	=44	=44
4ff\	o-	.
8.cc\	-tóż	.
16cc\	po-	.
4cc\	-cie-	.
8b-\	-chę	.
8a\	ma	.
=45	=45	=45
4cc\	z sy-	.
4b-\	-na	.
4r	.	.
8.dd\	ja-	.
16cc\	-ką	.
=46	=46	=46
4g/	mi	.
4b-/	na	.
(4c/	sta-	.
8d/)	.	.
8e/	-rość	.
=47	=47	=47
8f/L	nie-	.
8a/J	.	.
4cc\	-sie	.
2r	.	.
=48	=48	=48
8.ff\	[[więc	[[o-
16cc\	to]]	-to]]
4cc\	.	ta
!!LO:LB:g=original
4a/	bę-	.
8g/	-dzie	.
8f/	przy-	.
=49	=49	=49
4dd\	-czy-	.
4b-\	-na	.
4r	.	.
8.g/	cze-	.
16g/	-go	.
=50	=50	=50
4.cc\	błą-	.
8cc\	-ka	.
4.cc\	się	.
8b-\	po	.
=51	=51	=51
4a/	le-	.
4f/	-sie	.
4r	.	.
4cc\	oj	.
=52	=52	=52
4.cc\	pię-	.
8cc\	-knaś	.
(4ff\	bo	.
8ee\)	.	.
8dd\	ko-	.
=53	=53	=53
(2.cc\	-chan-	.
8b-/)	-ka	.
8a/	ta	.
!!LO:LB:g=original
=54	=54	=54
2g/	ma-	.
4.cc\	-ła	.
8cc\	cy-	.
=55	=55	=55
4a/	-gan-	.
4f/	-ka	.
4r	.	.
4a/	oj	.
=56	=56	=56
4.a/	pię-	.
8a/	-knaś	.
(4dd\	bo	.
8cc\)	.	.
8b-/	ko-	.
=57	=57	=57
[2.a/	-chan-	.
12d/L 12a]	-ka	.
12g/J	.	.
12f/	ta	.
=58	=58	=58
2e/	ma-	.
4.a/	-ła	.
8a/	cy-	.
=59	=59	=59
8f/	-gan-	.
8f/	-ka	.
8r	.	.
8ff\	hul-	.
8ff\	-ta-	.
8b-\	-je	.
8r	.	.
8dd\	nie-	.
!!LO:LB:g=original
=60	=60	=60
8dd\	-cno-	.
8g/	-ty!	.
8r	.	.
8dd\	cy-	.
8gg\	-ga-	.
8cc\	-ny!	.
8r	.	.
8ee\	zło-	.
=61	=61	=61
8ee\	-dzie-	.
8a/	-je	.
8r	.	.
8ee\	włó-	.
4ff\	-cę-	.
8cc\	-gi	.
8dd\	po	.
=62	=62	=62
4b-/	ca-	.
4g/	-łym	.
2cc\	świe-	.
=63	=63	=63
4a/	-cie	.
4r	.	.
2r	.	.
!!LO:LB:g=original
=64	=64	=64
4gg\	o-	[[wio-
8.dd\	-to	-dąc
16dd\	po-	go
(4ee\	-cie-	do
8dd\)	-chę	.
8cc\	mam	sro-
=65	=65	=65
4ff\	z sy-	-mo-
4f/	-na	-ty
2r	.	.
=66	=66	=66
4gg\	ja-	łą-
8.dd\	-ką	-cze
16dd\	na	prze-
4ee\	sta-	-de
8dd\	-rość	mną
8cc\	mi	Kry]]
=67!|:	=67!|:	=67!|:
*>B	*	*
8a\ 8ff	nie-	le-
8f/	-sie,	-sie,
8f/	więc	.
8a/	to	.
8b-\	bę-	.
8dd\	-dzie	.
8ff\	ta	.
8g/	przy-	.
!!LO:LB:g=original
=68	=68	=68
8b-\	-czy-	.
8cc\	-na	.
8ee\	cze-	.
8gg\	-go	.
8ff\	błą-	.
8dd\	-ka	.
8b-\	się	.
8g/	po	.
=69	=69	=69
1cc	le-	.
=70	=70	=70
8cc\	-sie	.
8r	.	.
!LO:TX:t=P:problem:niezrozumiały tekst u dołu	!	!
8dd\	błą-	[[błą-
8b-\	-ka	-ka
4a/	się	się]]
4g/	po	hul-
=71:|!	=71:|!	=71:|!
*>C	*	*
[1gg	.	-ta-
=72	=72	=72
1gg]	.	.
!!LO:PB:g=original
=73	=73	=73
4g/	.	-je!
8ryy	.	.
8dd\ 8gg	oj	.
8ff\L	pię-	.
8ee\J	.	.
8ff\	-kna	.
8gg\	ko-	.
=74	=74	=74
4.cc\	-chan-	.
8ff\	-ka,	.
8ee\L	pię-	.
8dd\J	.	.
8ee\	-kna	.
8ff\	ko-	.
=75	=75	=75
4.a/	-chan-	.
8dd\	-ka,	.
8qdd/	.	.
8cc\L	ja-	[[ma-
8bn\J	.	-ła]]
8cc\	-kaś	.
8dd\	cy-	.
=76	=76	=76
(4f/	-gan-	.
4b-/)	.	.
4a/	-ka,	.
8r	.	.
8cc\	zło-	.
!!LO:LB:g=original
=77	=77	=77
8ff\	-dzie-	.
8cc\	-je,	.
8cc\	wy	.
8cc\	hul-	.
8ee\	-ta-	.
8cc\	-je,	.
8cc\	wy	.
8cc\	cy-	.
=78	=78	=78
8ff\	-ga-	.
8cc\	-ny,	.
8cc\	wy	.
8cc\	nie-	.
8ee\	-cno-	.
8cc\	-ty,	.
8cc\	wio-	.
8cc\	-dąc	.
=79	=79	=79
8ff\	Sta-	.
8cc\	-cha	.
8ee\	do	.
8cc\	sro-	.
8dd\	-mo-	.
8cc\	-ty	.
8ee\	je-	.
8cc\	-szcze	.
!!LO:LB:g=original
=80	=80	=80
8ff\	prze-	.
8cc\	-de	.
8ee\	mną	.
8cc\	kry-	.
8dd\	-je-	.
8cc\	-cie	.
8ee\	wy	.
8cc\	hul-	.
=81	=81	=81
4ff\	-ta-	.
4cc\	-je	.
4r	.	.
4ff\	[[wy]] nie-	.
=82	=82	=82
1gg	-cno-	.
=83	=83	=83
4ff\	-ty.	.
4r	.	.
2r	.	.
==	==	==
*-	*-	*-
!!!AIN: 1 empty
!!!ENC: Andrzej Gręziak
!!!END: 2021-09-08
!!!EED: Andrzej Borzym
!!!EST: 2021-09-23
